X: 180
T: Si dormiero
N: Derived from Rue2028-Si_dormiero.krn
C: Pierre de la Rue
%%abc-version 2.0
%%abcx-abcm2ps-target-version 5.9.1 (29 Sep 2008)
%%abc-creator hum2abc beta
%%abcx-conversion-date 2019/02/17 08:01:17
%%abc-edited-by Jesse Rodin
%%abc-edited-by Chris Gage 06-05-2012
%%abcx-initial-encoding-date 2012/06/06/
%%humdrum-veritas 3934760795
%%humdrum-veritas-data 512618536
%%linebreak <none>
%%barnumbers 0
L: 1/4
M: 2/1
Q: 1/2=120
V: 1 clef=treble
V: 2 clef=treble-8
V: 3 clef=bass
K: C
[V:1] z8 | 
[V:2] z8 | 
[V:3] E,8- | 
[V:1] z8 | 
[V:2] z8 | 
[V:3] E,4F,4 | 
[V:1] B8- | 
[V:2] z8 | 
[V:3] E,6D,C, | 
[V:1] B4c4 | 
[V:2] z4e4- | 
[V:3] B,,4A,,4 | 
[V:1] B4B2AG | 
[V:2] e8 | 
[V:3] z8 | 
[V:1] ABcdc2B2- | 
[V:2] f4e4- | 
[V:3] z4E,4- | 
[V:1] BAA3^GG2 | 
[V:2] e2dcB4 | 
[V:3] E,8 | 
[V:1] A4z4 | 
[V:2] ABcdc2B2- | 
[V:3] F,4E,4- | 
[V:1] z8 | 
[V:2] BAA4^G2 | 
[V:3] E,2D,C,B,,4 | 
[V:1] c8- | 
[V:2] A4z2f2- | 
[V:3] A,,4z4 | 
[V:1] c8 | 
[V:2] f2e2f2e2- | 
[V:3] A,8 | 
[V:1] B8 | 
[V:2] e2d2e2d2- | 
[V:3] G,8 | 
[V:1] A8 | 
[V:2] d2c2d2c2- | 
[V:3] F,8 | 
[V:1] G8 | 
[V:2] c2BAB4 | 
[V:3] E,8 | 
[V:1] A4z2c2- | 
[V:2] A8 | 
[V:3] A,,4z2A,2- | 
[V:1] c2B2c2B2- | 
[V:2] e8 | 
[V:3] A,2G,2A,2G,2- | 
[V:1] B2A2B2A2- | 
[V:2] d8 | 
[V:3] G,2F,2G,2F,2- | 
[V:1] A2G2A2G2- | 
[V:2] c8 | 
[V:3] F,2E,2F,2E,2- | 
[V:1] G2FED4 | 
[V:2] B8- | 
[V:3] E,2F,2G,4 | 
[V:1] z4d4 | 
[V:2] B8- | 
[V:3] z2G,4G,2- | 
[V:1] d8 | 
[V:2] B8 | 
[V:3] G,2F,E,D,2G,2 | 
[V:1] e6c2 | 
[V:2] c8 | 
[V:3] C,4z4 | 
[V:1] d2B2c4- | 
[V:2] z8 | 
[V:3] G,4A,4- | 
[V:1] c2A2B2G2 | 
[V:2] z2d4e2 | 
[V:3] A,2F,2G,2E,2 | 
[V:1] A6F2 | 
[V:2] c2d6 | 
[V:3] F,6D,2 | 
[V:1] G2E2F2A2- | 
[V:2] B2c2A2F2 | 
[V:3] E,2C,2D,4 | 
[V:1] AGG4^F2 | 
[V:2] G2B2A4 | 
[V:3] z4D,4 | 
[V:1] G8 | 
[V:2] G4z4 | 
[V:3] E,6C,2 | 
[V:1] z8 | 
[V:2] d4e4- | 
[V:3] D,2B,,2C,4- | 
[V:1] z8 | 
[V:2] e2c2d2B2 | 
[V:3] C,2A,,2B,,2G,,2 | 
[V:1] z8 | 
[V:2] c6B2- | 
[V:3] A,,3B,,C,D,E,2 | 
[V:1] z4B4 | 
[V:2] BAA4^G2 | 
[V:3] D,C,B,,A,,B,,4 | 
[V:1] c6B2- | 
[V:2] A3Bcde2 | 
[V:3] A,,4z4 | 
[V:1] B2A4^G2 | 
[V:2] dcBAB4 | 
[V:3] z4E,4 | 
[V:1] A4z2A2- | 
[V:2] z2A3Bc2 | 
[V:3] F,8- | 
[V:1] ABc2d2A2- | 
[V:2] d2A3Bc2 | 
[V:3] F,8- | 
[V:1] ABc2A2c2 | 
[V:2] A3Bc2A2 | 
[V:3] F,8 | 
[V:1] B2G2d4 | 
[V:2] d2e2d2B2- | 
[V:3] G,8- | 
[V:1] z2B3cd2 | 
[V:2] Bcd2e2B2- | 
[V:3] G,8- | 
[V:1] e2B3cd2 | 
[V:2] Bcd2e2d2 | 
[V:3] G,8 | 
[V:1] e2d4c2- | 
[V:2] B4A4 | 
[V:3] G,4F,4 | 
[V:1] c2B4A2- | 
[V:2] G4d4 | 
[V:3] E,4D,4 | 
[V:1] A2d3cBA | 
[V:2] f8 | 
[V:3] D,8 | 
[V:1] G8 | 
[V:2] e8- | 
[V:3] E,4z2E,2- | 
[V:1] z4z2G2- | 
[V:2] e8- | 
[V:3] E,F,G,2A,2E,2- | 
[V:1] GAB2c2G2 | 
[V:2] e8 | 
[V:3] E,F,G,2A,2E,2 | 
[V:1] z2B2c2B2 | 
[V:2] z2G2A2G2 | 
[V:3] A,,2E,2A,,2E,2 | 
[V:1] c2BGA2G2 | 
[V:2] A3Bc2B2 | 
[V:3] A,,2E,2A,,2E,2 | 
[V:1] A2GEF2E2 | 
[V:2] c4d2c2 | 
[V:3] A,,2E,2z2A,2 | 
[V:1] F2ECD2E2 | 
[V:2] d2c2B2c2- | 
[V:3] D,2A,2D,2A,2- | 
[V:1] F2E4D2 | 
[V:2] cBB4A2 | 
[V:3] A,G,F,E,F,4 | 
[V:1] E8- | 
[V:2] B4z2B2 | 
[V:3] E,8 | 
[V:1] E8 | 
[V:2] c2B2c2BG | 
[V:3] z4z2E,2 | 
[V:1] z8 | 
[V:2] A2e2d2e2 | 
[V:3] F,2E,2F,2E,C, | 
[V:1] z8 | 
[V:2] f2ecd2e2 | 
[V:3] D,2E,2z2A,2- | 
[V:1] z8 | 
[V:2] f2e4d2 | 
[V:3] A,E,G,2F,4 | 
[V:1] G6FE | 
[V:2] e8- | 
[V:3] E,8- | 
[V:1] G2A2B4- | 
[V:2] e8 | 
[V:3] E,8 | 
[V:1] B2AGB2c2 | 
[V:2] d8- | 
[V:3] G,6F,E, | 
[V:1] d2B2A4 | 
[V:2] d8 | 
[V:3] D,2E,2F,4 | 
[V:1] G4z2G2 | 
[V:2] e8 | 
[V:3] E,8 | 
[V:1] A2B2c2B2- | 
[V:2] z2e6 | 
[V:3] z8 | 
[V:1] BAc2B3A | 
[V:2] d2e4d2 | 
[V:3] z8 | 
[V:1] c2B3Ac2 | 
[V:2] e4d2e2- | 
[V:3] z8 | 
[V:1] B2A4^G2 | 
[V:2] e2dcB4 | 
[V:3] z2C,2D,2E,2 | 
[V:1] A4z4 | 
[V:2] A4z2B2- | 
[V:3] F,3E,E,3D, | 
[V:1] z8 | 
[V:2] BAc2B3A | 
[V:3] D,2E,4D,2 | 
[V:1] z8 | 
[V:2] c2B3Ac2 | 
[V:3] E,4D,2E,2- | 
[V:1] z8 | 
[V:2] B2A4^G2 | 
[V:3] E,2D,C,B,,4 | 
[V:1] z2c3BA2 | 
[V:2] A4z2A2 | 
[V:3] A,,8 | 
[V:1] G2A2E2A2- | 
[V:2] B2c6 | 
[V:3] z4z2F,2- | 
[V:1] AGF2E2F2 | 
[V:2] A2B2c2A2 | 
[V:3] F,E,D,2C,2D,2 | 
[V:1] C2A3GF2 | 
[V:2] z2A4B2 | 
[V:3] A,,2F,3E,D,2 | 
[V:1] E2F2D4 | 
[V:2] c2A4^G2 | 
[V:3] C,2D,2B,,4 | 
[V:1] C4z2C2 | 
[V:2] A8 | 
[V:3] A,,8 | 
[V:1] D2E2F2G2 | 
[V:2] z2A4G2 | 
[V:3] z8 | 
[V:1] C2E2F2G2 | 
[V:2] A2E2z2c2- | 
[V:3] z2C,2D,2E,2 | 
[V:1] A2B2E2G2 | 
[V:2] c2B2c2G2 | 
[V:3] F,2G,2C,2E,2 | 
[V:1] A2B2c2d2 | 
[V:2] z2e4d2 | 
[V:3] F,2G,2A,2B,2 | 
[V:1] G8- | 
[V:2] e2B2z2e2- | 
[V:3] E,4z2C2- | 
[V:1] G8 | 
[V:2] e2d2e4 | 
[V:3] C2B,2C4 | 
[V:1] z4z2c2- | 
[V:2] d2B2c4 | 
[V:3] B,2G,2A,4 | 
[V:1] c2B2c4 | 
[V:2] d4z2c2 | 
[V:3] G,4A,4 | 
[V:1] B2G2A4 | 
[V:2] d2e2z2A2 | 
[V:3] G,2E,2F,4 | 
[V:1] G4A4 | 
[V:2] B2c2z2F2 | 
[V:3] E,4F,4 | 
[V:1] G2E2F2G2- | 
[V:2] G2A2z2G2 | 
[V:3] E,2C,2D,2E,2 | 
[V:1] GFE4D2 | 
[V:2] A2E2F4 | 
[V:3] C,4D,4 | 
[V:1] E4z4 | 
[V:2] E4z2e2 | 
[V:3] A,,8 | 
[V:1] z8 | 
[V:2] e4f4 | 
[V:3] z2E,4D,2 | 
[V:1] z8 | 
[V:2] e2g3fe2- | 
[V:3] E,6E,2 | 
[V:1] z8 | 
[V:2] e2d2e4 | 
[V:3] F,4E,2G,2- | 
[V:1] z8 | 
[V:2] z2e2f4 | 
[V:3] G,F,E,4D,2 | 
[V:1] B8- | 
[V:2] e2g3fe2- | 
[V:3] E,8 | 
[V:1] B8 | 
[V:2] e2d2e4- | 
[V:3] z8 | 
[V:1] c4B2d2- | 
[V:2] e4d2B2 | 
[V:3] z8 | 
[V:1] dcB4A2 | 
[V:2] d4c4 | 
[V:3] z4A,4 | 
[V:1] B4z4 | 
[V:2] B2g3fe2- | 
[V:3] G,2E,2G,4 | 
[V:1] A4G2E2 | 
[V:2] e2d2e4 | 
[V:3] F,4E,2G,2- | 
[V:1] G4F4 | 
[V:2] z8 | 
[V:3] G,F,E,4D,2 | 
[V:1] E4z2G2- | 
[V:2] B8 | 
[V:3] E,4z2E,2- | 
[V:1] G2A2B2G2- | 
[V:2] c4B4 | 
[V:3] E,2F,2G,4 | 
[V:1] G2A2B2G2 | 
[V:2] c4B2c2- | 
[V:3] E,2F,2G,2E,2 | 
[V:1] A4B2c2 | 
[V:2] c2d4c2- | 
[V:3] F,2D,2G,2A,2- | 
[V:1] A4B2c2 | 
[V:2] c2d4c2 | 
[V:3] A,2F,2G,2A,2 | 
[V:1] A2B4c2 | 
[V:2] d4e4 | 
[V:3] F,2G,2E,2A,2 | 
[V:1] d4z2G2 | 
[V:2] f4e3d | 
[V:3] D,4E,4 | 
[V:1] A2B3GA2 | 
[V:2] c2B2e2d2 | 
[V:3] z2E,4F,2 | 
[V:1] B2G2z2G2- | 
[V:2] B2e2d2B2 | 
[V:3] G,2E,2F,2G,2 | 
[V:1] G4A2B2- | 
[V:2] e2dBc2B2 | 
[V:3] E,2G,2F,2G,2 | 
[V:1] BGA2B2G2 | 
[V:2] z2d4e2 | 
[V:3] E,2F,2G,2E,2 | 
[V:1] z2G6 | 
[V:2] c2d2e2B2 | 
[V:3] A,2G,2E,2G,2 | 
[V:1] A2G2E2F2 | 
[V:2] z2B3cd2 | 
[V:3] F,2E,2G,2F,2 | 
[V:1] GABGc2B2- | 
[V:2] e2B2e2dB | 
[V:3] E,2G,2E,2G,2 | 
[V:1] BAA4^G2 | 
[V:2] c2d2B4 | 
[V:3] F,2D,2E,4 | 
[V:1] A8 |]  
[V:2] A8 |]  
[V:3] A,,8 |]  



